src/Assets/Icons/ForRentIcon.svg

<svg width="89" height="34" viewBox="0 0 89 34" fill="none" xmlns="http://www.w3.org/2000/svg">
<rect x="0.472452" y="0.752237" width="88.0551" height="32.0551" rx="16.0275" fill="#199976" fill-opacity="0.2"/>
<path d="M19.2802 21.2798V11.8252H25.337V13.261H20.9929V15.8277H24.9215V17.2634H20.9929V21.2798H19.2802ZM29.396 21.4183C28.7036 21.4183 28.1034 21.2659 27.5956 20.9612C27.0878 20.6566 26.6939 20.2303 26.4138 19.6825C26.1368 19.1347 25.9983 18.4945 25.9983 17.762C25.9983 17.0295 26.1368 16.3879 26.4138 15.837C26.6939 15.2861 27.0878 14.8583 27.5956 14.5536C28.1034 14.2489 28.7036 14.0965 29.396 14.0965C30.0885 14.0965 30.6887 14.2489 31.1965 14.5536C31.7043 14.8583 32.0967 15.2861 32.3737 15.837C32.6537 16.3879 32.7938 17.0295 32.7938 17.762C32.7938 18.4945 32.6537 19.1347 32.3737 19.6825C32.0967 20.2303 31.7043 20.6566 31.1965 20.9612C30.6887 21.2659 30.0885 21.4183 29.396 21.4183ZM29.4053 20.0795C29.7807 20.0795 30.0947 19.9764 30.347 19.7702C30.5994 19.5609 30.7871 19.2809 30.9102 18.93C31.0364 18.5791 31.0995 18.1883 31.0995 17.7574C31.0995 17.3235 31.0364 16.9311 30.9102 16.5802C30.7871 16.2263 30.5994 15.9447 30.347 15.7354C30.0947 15.5261 29.7807 15.4215 29.4053 15.4215C29.0206 15.4215 28.7005 15.5261 28.445 15.7354C28.1927 15.9447 28.0034 16.2263 27.8772 16.5802C27.7541 16.9311 27.6926 17.3235 27.6926 17.7574C27.6926 18.1883 27.7541 18.5791 27.8772 18.93C28.0034 19.2809 28.1927 19.5609 28.445 19.7702C28.7005 19.9764 29.0206 20.0795 29.4053 20.0795ZM34.2122 21.2798V14.1889H35.8326V15.3707H35.9064C36.0357 14.9614 36.2573 14.6459 36.5712 14.4243C36.8882 14.1996 37.2498 14.0873 37.6561 14.0873C37.7484 14.0873 37.8515 14.0919 37.9654 14.1012C38.0823 14.1073 38.1793 14.1181 38.2562 14.1335V15.6708C38.1854 15.6461 38.0731 15.6246 37.9192 15.6061C37.7684 15.5846 37.6222 15.5738 37.4806 15.5738C37.176 15.5738 36.902 15.64 36.6589 15.7723C36.4189 15.9016 36.2296 16.0816 36.0911 16.3125C35.9526 16.5433 35.8833 16.8095 35.8833 17.1111V21.2798H34.2122ZM42.665 21.2798V11.8252H46.2104C46.9367 11.8252 47.5461 11.9514 48.0385 12.2038C48.534 12.4562 48.908 12.8101 49.1603 13.2656C49.4158 13.718 49.5435 14.2458 49.5435 14.849C49.5435 15.4553 49.4142 15.9816 49.1557 16.4279C48.9003 16.871 48.5233 17.2142 48.0247 17.4573C47.5261 17.6974 46.9136 17.8174 46.1873 17.8174H43.6621V16.3956H45.9565C46.3812 16.3956 46.729 16.3371 46.9998 16.2201C47.2707 16.1001 47.4707 15.9262 47.6 15.6985C47.7323 15.4676 47.7985 15.1845 47.7985 14.849C47.7985 14.5136 47.7323 14.2273 47.6 13.9904C47.4676 13.7503 47.266 13.5687 46.9952 13.4456C46.7244 13.3194 46.3751 13.2563 45.9473 13.2563H44.3777V21.2798H42.665ZM47.5492 16.9957L49.8897 21.2798H47.9785L45.6795 16.9957H47.5492ZM54.0838 21.4183C53.3729 21.4183 52.7589 21.2706 52.2418 20.9751C51.7279 20.6766 51.3324 20.2549 51.0554 19.7102C50.7784 19.1624 50.6399 18.5176 50.6399 17.7759C50.6399 17.0465 50.7784 16.4063 51.0554 15.8554C51.3355 15.3014 51.7263 14.8706 52.228 14.5628C52.7296 14.252 53.319 14.0965 53.9961 14.0965C54.4331 14.0965 54.8455 14.1673 55.2333 14.3089C55.6242 14.4474 55.9689 14.6628 56.2674 14.9552C56.569 15.2476 56.806 15.62 56.9783 16.0724C57.1507 16.5217 57.2369 17.0572 57.2369 17.6789V18.1914H51.4247V17.0649H55.6349C55.6319 16.7449 55.5626 16.4602 55.4272 16.2109C55.2918 15.9585 55.1025 15.76 54.8594 15.6154C54.6193 15.4707 54.3393 15.3984 54.0192 15.3984C53.6776 15.3984 53.3775 15.4815 53.119 15.6477C52.8604 15.8108 52.6589 16.0262 52.5142 16.294C52.3726 16.5587 52.3003 16.8495 52.2972 17.1665V18.1498C52.2972 18.5622 52.3726 18.9161 52.5234 19.2116C52.6742 19.504 52.8851 19.7286 53.1559 19.8856C53.4267 20.0395 53.7437 20.1164 54.1069 20.1164C54.35 20.1164 54.5701 20.0826 54.767 20.0149C54.964 19.9441 55.1348 19.841 55.2795 19.7056C55.4241 19.5701 55.5334 19.4024 55.6072 19.2024L57.1676 19.3778C57.0691 19.7902 56.8814 20.1503 56.6044 20.4581C56.3305 20.7627 55.9796 20.9997 55.5518 21.169C55.1241 21.3352 54.6347 21.4183 54.0838 21.4183ZM60.3218 17.125V21.2798H58.6507V14.1889H60.248V15.3938H60.3311C60.4942 14.9968 60.7542 14.6813 61.1112 14.4474C61.4713 14.2135 61.916 14.0965 62.4454 14.0965C62.9347 14.0965 63.361 14.2012 63.7242 14.4105C64.0904 14.6197 64.3736 14.9229 64.5736 15.3199C64.7767 15.7169 64.8767 16.1986 64.8737 16.7649V21.2798H63.2025V17.0234C63.2025 16.5494 63.0794 16.1786 62.8332 15.9108C62.5901 15.6431 62.253 15.5092 61.8222 15.5092C61.5298 15.5092 61.2697 15.5738 61.042 15.7031C60.8173 15.8293 60.6404 16.0124 60.5111 16.2524C60.3849 16.4925 60.3218 16.7833 60.3218 17.125ZM70.1134 14.1889V15.4815H66.037V14.1889H70.1134ZM67.0434 12.49H68.7146V19.147C68.7146 19.3716 68.7484 19.544 68.8161 19.664C68.8869 19.781 68.9793 19.861 69.0931 19.9041C69.207 19.9472 69.3332 19.9687 69.4717 19.9687C69.5763 19.9687 69.6717 19.961 69.7579 19.9456C69.8472 19.9302 69.9149 19.9164 69.961 19.9041L70.2426 21.2105C70.1534 21.2413 70.0257 21.2752 69.8595 21.3121C69.6963 21.349 69.4963 21.3706 69.2593 21.3767C68.8408 21.389 68.4637 21.3259 68.1283 21.1875C67.7928 21.0459 67.5266 20.8274 67.3296 20.5319C67.1357 20.2365 67.0403 19.8671 67.0434 19.424V12.49Z" fill="#199976"/>
<rect x="0.472452" y="0.752237" width="88.0551" height="32.0551" rx="16.0275" stroke="#199976" stroke-width="0.944904"/>
</svg>

<svg width="89" height="34" fill="none" xmlns="http://www.w3.org/2000/svg"><rect x=".472" y=".752" width="88.055" height="32.055" rx="16.027" fill="#199976" fill-opacity=".2"/><path d="M19.28 21.28v-9.455h6.057v1.436h-4.344v2.567h3.929v1.435h-3.93v4.017H19.28Zm10.116.138c-.692 0-1.293-.152-1.8-.457a3.103 3.103 0 0 1-1.182-1.278c-.277-.548-.416-1.189-.416-1.921 0-.733.139-1.374.416-1.925.28-.55.674-.979 1.182-1.283.507-.305 1.108-.457 1.8-.457s1.293.152 1.8.457c.508.304.9.732 1.178 1.283.28.55.42 1.192.42 1.925 0 .732-.14 1.373-.42 1.92-.277.548-.67.975-1.178 1.28-.507.304-1.108.456-1.8.456Zm.01-1.338c.375 0 .689-.104.941-.31.252-.21.44-.49.563-.84.126-.35.19-.742.19-1.173a3.46 3.46 0 0 0-.19-1.177 1.863 1.863 0 0 0-.563-.845c-.252-.209-.566-.313-.942-.313-.384 0-.704.104-.96.313-.252.21-.442.491-.568.845a3.54 3.54 0 0 0-.184 1.177c0 .431.061.822.184 1.173.126.35.316.63.568.84.256.206.576.31.96.31Zm4.806 1.2v-7.091h1.62v1.182h.074c.13-.41.351-.725.665-.947a1.83 1.83 0 0 1 1.085-.337c.092 0 .196.005.31.014.116.006.213.017.29.032v1.538a1.753 1.753 0 0 0-.337-.065 3.107 3.107 0 0 0-.438-.032c-.305 0-.579.066-.822.198-.24.13-.43.31-.568.54-.138.231-.208.497-.208.8v4.168h-1.67Zm8.453 0v-9.455h3.545c.727 0 1.336.126 1.828.379.496.252.87.606 1.122 1.062.256.452.384.98.384 1.583 0 .606-.13 1.133-.388 1.579a2.56 2.56 0 0 1-1.131 1.03c-.499.24-1.111.36-1.838.36h-2.525v-1.422h2.294c.425 0 .773-.059 1.044-.176.27-.12.47-.294.6-.521.132-.231.198-.514.198-.85 0-.335-.066-.622-.198-.859a1.263 1.263 0 0 0-.605-.544c-.27-.127-.62-.19-1.048-.19h-1.57v8.024h-1.712Zm4.884-4.284 2.34 4.284h-1.91l-2.3-4.284h1.87Zm6.535 4.422c-.711 0-1.325-.147-1.842-.443a3.002 3.002 0 0 1-1.187-1.265c-.277-.548-.415-1.192-.415-1.934 0-.73.138-1.37.415-1.92.28-.555.671-.985 1.173-1.293.502-.311 1.091-.466 1.768-.466.437 0 .85.07 1.237.212.391.138.736.354 1.034.646.302.293.539.665.711 1.117.173.45.259.985.259 1.607v.512h-5.812v-1.126h4.21a1.797 1.797 0 0 0-.208-.854 1.51 1.51 0 0 0-.568-.596 1.596 1.596 0 0 0-.84-.217c-.341 0-.642.084-.9.25-.259.163-.46.378-.605.646a1.86 1.86 0 0 0-.217.872v.984c0 .412.076.766.226 1.062.151.292.362.517.633.674.27.154.588.23.95.23.244 0 .464-.033.661-.101.197-.07.368-.174.512-.31.145-.135.254-.303.328-.503l1.56.176a2.433 2.433 0 0 1-.563 1.08 2.747 2.747 0 0 1-1.052.711c-.428.166-.917.25-1.468.25Zm6.238-4.293v4.155H58.65v-7.091h1.597v1.205h.083c.163-.397.423-.713.78-.947.36-.233.805-.35 1.334-.35.49 0 .916.104 1.28.314.365.209.649.512.849.909.203.397.303.879.3 1.445v4.515h-1.671v-4.257c0-.474-.124-.844-.37-1.112-.243-.268-.58-.402-1.01-.402-.293 0-.553.065-.781.194-.225.126-.402.31-.53.55-.127.24-.19.53-.19.872Zm9.791-2.936v1.293h-4.076v-1.293h4.076Zm-3.07-1.699h1.672v6.657c0 .225.033.397.101.517.07.117.163.197.277.24.114.043.24.065.379.065.104 0 .2-.008.286-.023.09-.016.157-.03.203-.042l.282 1.306c-.09.031-.217.065-.383.102a3.137 3.137 0 0 1-.6.065 2.727 2.727 0 0 1-1.132-.19 1.76 1.76 0 0 1-.798-.655c-.194-.296-.29-.665-.287-1.108V12.49Z" fill="#199976"/><rect x=".472" y=".752" width="88.055" height="32.055" rx="16.027" stroke="#199976" stroke-width=".945"/></svg>
